packages/gestalt/src/icons/refresh.svg

<svg width="24" height="24" xmlns="http://www.w3.org/2000/svg"><path d="M3.465 3H1.5a1.5 1.5 0 1 1 0-3h7v7.5a1.5 1.5 0 1 1-3 0V5.216C3.942 6.705 3 8.783 3 11c0 4.411 3.589 8 8 8s8-3.589 8-8a7.976 7.976 0 0 0-7.156-7.956 1.5 1.5 0 0 1 .312-2.983A10.967 10.967 0 0 1 22 11c0 6.065-4.934 11-11 11-6.065 0-11-4.935-11-11 0-3.068 1.299-5.951 3.465-8" fill="#8E8E8E"/></svg>

<svg width="24px" height="24px" xmlns="http://www.w3.org/2000/svg"><path d="M3.465,3 L1.5,3 C0.672,3 0,2.329 0,1.5 C0,0.671 0.672,0 1.5,0 L8.5,0 L8.5,7.5 C8.5,8.329 7.828,9 7,9 C6.172,9 5.5,8.329 5.5,7.5 L5.5,5.216 C3.942,6.705 3,8.783 3,11 C3,15.411 6.589,19 11,19 C15.411,19 19,15.411 19,11 C19,6.891 15.924,3.471 11.844,3.044 C11.021,2.958 10.422,2.22 10.508,1.396 C10.594,0.572 11.335,-0.027 12.156,0.061 C17.768,0.647 22,5.35 22,11 C22,17.065 17.066,22 11,22 C4.935,22 0,17.065 0,11 C0,7.932 1.299,5.049 3.465,3" fill="#8E8E8E" /></svg>
